X:1
T:Riverside
C:Paul Rosen
S:Copyright 2005, Paul Rosen
M:4/4
L:1/8
Q:115
R:old time
K:G
|:"G"b4 g4|d4- d2AB|"D"cBcB A2AB|cBcB A4|"G"b4 g4|
d4- d2AB|"D"cBcB A2F2|[1"G"G2GG G2GG:|[2"G"G2GG G2AB|:"D"cBcB A2AB|
cBcB A4|"G"d2dd B2Bc|dcdc B2dd|"C"e3g e2AB|"D"cBAF "G"G2GG:|
